X:275
T:Sean McGovern's* (polka) 
B:CRE2.108 (gan ainm)
F:file ID: cre.2/275sean_mcg
L:1/8
M:2/4
R:polka
Q:150
K:D
d/B/|:AD FA|GF EF/G/|AD FA|d2 dc/B/|
AD FA|GF EB/d/|ce Ac|1 d2 dc/B/:|2 d2 d>||
|:e/|fd gf|ec Ae|fd gf|e2 a>e|
fd gf|ec A>B|ce ce|d2 d>:|

%%%

